svg/24/auto-scroll-set--filled.svg

<svg width="24" height="24" viewBox="0 0 24 24" fill="currentColor" xmlns="http://www.w3.org/2000/svg"><path d="M6.28033 7.78033C5.98744 8.07322 5.51256 8.07322 5.21967 7.78033C4.92678 7.48744 4.92678 7.01256 5.21967 6.71967L9.46967 2.46967C9.76256 2.17678 10.2374 2.17678 10.5303 2.46967L14.7803 6.71967C15.0732 7.01256 15.0732 7.48744 14.7803 7.78033C14.4874 8.07322 14.0126 8.07322 13.7197 7.78033L10 4.06066L6.28033 7.78033Z"/><path d="M6.28033 16.2197C5.98744 15.9268 5.51256 15.9268 5.21967 16.2197C4.92678 16.5126 4.92678 16.9874 5.21967 17.2803L9.46967 21.5303C9.76256 21.8232 10.2374 21.8232 10.5303 21.5303L11.6744 20.3863C11.4292 19.8924 11.245 19.363 11.1316 18.8077L10 19.9393L6.28033 16.2197Z"/><path d="M13 12C13 12.3388 12.9439 12.6644 12.8404 12.9681C12.422 13.3982 12.0627 13.886 11.7754 14.4185C11.2783 14.784 10.6644 15 10 15C8.34315 15 7 13.6569 7 12C7 10.3431 8.34315 9 10 9C11.6569 9 13 10.3431 13 12Z"/><path fill-rule="evenodd" clip-rule="evenodd" d="M23 17.5C23 20.5376 20.5376 23 17.5 23C14.4624 23 12 20.5376 12 17.5C12 14.4624 14.4624 12 17.5 12C20.5376 12 23 14.4624 23 17.5ZM20 15.5C20 15.2239 19.7762 15 19.5 15H16.6716C16.3955 15 16.1716 15.2239 16.1716 15.5C16.1716 15.7761 16.3955 16 16.6716 16H18.2929L15.1463 19.1466C14.9511 19.3419 14.9511 19.6584 15.1463 19.8537C15.3416 20.049 15.6582 20.049 15.8534 19.8537L19 16.7071V18.3284C19 18.6046 19.2239 18.8284 19.5 18.8284C19.7762 18.8284 20 18.6046 20 18.3284V15.5Z"/></svg>

<svg xmlns="http://www.w3.org/2000/svg" width="24" height="24" fill="currentColor" viewBox="0 0 24 24">
  <path d="M6.28 7.78a.75.75 0 0 1-1.06-1.06l4.25-4.25a.75.75 0 0 1 1.06 0l4.25 4.25a.75.75 0 0 1-1.06 1.06L10 4.06 6.28 7.78Zm0 8.44a.75.75 0 0 0-1.06 1.06l4.25 4.25a.75.75 0 0 0 1.06 0l1.144-1.144a6.45 6.45 0 0 1-.542-1.578L10 19.939l-3.72-3.72ZM13 12c0 .339-.056.664-.16.968-.418.43-.777.918-1.065 1.45A3 3 0 1 1 13 12Z"/>
  <path fill-rule="evenodd" d="M23 17.5a5.5 5.5 0 1 1-11 0 5.5 5.5 0 0 1 11 0Zm-3-2a.5.5 0 0 0-.5-.5h-2.828a.5.5 0 0 0 0 1h1.62l-3.146 3.147a.5.5 0 0 0 .707.707L19 16.707v1.621a.5.5 0 1 0 1 0V15.5Z" clip-rule="evenodd"/>
</svg>
